X: 1
T: Barrack Hill
R: slide
M: 12/8
L: 1/8
K: Dmaj
|: e2A ABd e2d B2d | e2A ABA G2A B2D | e2A ABd e2d B2d | edB G2B A3 A3 :|
|: e2d efg a2f g2e | d2B d2e d2B d3 | e2d efg a2f g2e | d2B G2B A3 A3 :| 

